X:1
T: Miss Gordon of Park
C:William Marshall
R: Jig
M:6/8
Q:180
K:F
M:6/8
L:1/16
|:F4F2 c2A2F2|F2G2F2 d6|c2A2F2 F4A2|G2E2C2 C2D2E2|
F4F2 c2A2F2|F2G2F2 a4a2 g2a2f2|e2f2d2|1c2d2B2 A2B2G2:|2c6c6|
|:c4c2 g2e2c2|c2d2c2 c4a2|b4g2 a4f2|g4f2 e2d2c2|
|1c4c2 g2e2c2|c2d2c2 b6|a2g2f2 c2d2e2|f6F4c2:|
|2f6 c2A2c2|d6B4d2|c2b2a2 g2f2e2|f2c2A2 F6||
